X:31
T:Back Up And Push
C:Jethro Burns
A:Down Yonder and other old-time favorites
N:Transcribed by Philippe Colleu
R:bluegrass
L:1/8
Q:1/4=250
M:4/4
K:F
"F"Ac ^dc dc Ac | ^de fd ec A^G | "C"Gc AG ^DE CA, | G,A, CD EG A^F | 
"G"GA Bd g^f =f^d | ec A^G =Gc AG | "C"^DE CB, CG, B,_B, | "C7"z^d2A,2^F2d | 
"F"(3c^dc Ad (3cdc Ad | (3c^dc AG ^DC A,G, | "C"CB, DB, CD E/F/G | ^FG AF GA Bc |
"G"A_B =Bg ag ag | ag e^d =dc AG | "C"c2 [g3^d3][g3d3G3] | [g2^d2G2B,2] B,c =dc dc |
"F"c'2 c2 ^d2 cc' | zc ^dc d2 c2 | "C"c'2 c2 [a2^d2] [a2d2] | zc AG A2 c2 | 
"G"_B=B g_B =Bg _B=B | a2 Bg2[e2A2]^d | "C"eg ec AG Ac | AG ED DA2C |
"F"zC D2 ^D2 F2 | G2 cG ^F=F CD | "C"^DE GA cd ^de | ga g^d ec A^F |
"G"GA Bd gd e2 | c'a e^d =dc A^D | "C"EG A^D =DG, B,G, | C2 ^C2 D2 E2 | "F"F8 | 

